X: 130027
T: The MERRY GO-ROUND
%R: reel
B: James Kerr "Merry Melodies" v.1 p.30 s.0 #27
Z: 2016 John Chambers <jc:trillian.mit.edu>
M: 2/4
L: 1/16
K: Am
uE2 |\
A^GAB cdcB | ABcd e2(cd) |\
efed cdec | d2G2G2 (cB) |\
A^GAB cdcB | ABcd e2(cd) |\
efed c2(Bd) | c2A2A2z2 ||\
a2A2A2z2 | a2A2A2z2 |\
g2G2G2z2 |
g2G2G2z2 |\
a2A2a2A2 | g2G2g2G2 |\
a2(ef) edcB | c2A2A2z2 ||\
a2A2A2z2 | a2A2A2z2 |\
g2(GA) GABc | dedc B2E2 |\
A^GAB cdcB | ABcd e2(cd) |\
efed c2(Bd) | c2A2A2 |]

%%sep 1 1 500
%%sep 1 1 500

